src/symbolic/status/media-playlist-shuffle-symbolic.svg

<svg xmlns="http://www.w3.org/2000/svg" width="16" height="16"><path d="M13 13v-2H9a1 1 0 0 1-1-1V6c0-1.66-1.338-3-3-3H1v2h4a1 1 0 0 1 1 1v4c0 1.66 1.338 3 3 3zM13 3v2H9.377a4.481 4.481 0 0 0-1.002-1.934C8.577 3.024 8.785 3 9 3zm-8.377 8c.169.73.523 1.384 1.002 1.934A3.06 3.06 0 0 1 5 13H1v-2z" fill="#444"/><path d="M12 1v6l4-3zM12 9v6l4-3z" fill="#444"/></svg>

<svg xmlns="http://www.w3.org/2000/svg" width="16" height="16" version="1.1">
 <path style="fill:#444444" d="M 13,13 V 11 H 9 C 8.446,11 8,10.55 8,10 V 6 C 8,4.34 6.662,3 5,3 H 1 V 5 H 5 C 5.554,5 6,5.45 6,6 V 10 C 6,11.66 7.338,13 9,13 Z"/>
 <path style="fill:#444444" d="M 13,3 V 5 H 9.377 C 9.208,4.2702 8.8538,3.6156 8.375,3.0664 8.5769,3.0238 8.7851,3 9,3 Z M 4.623,11 C 4.792,11.73 5.146,12.384 5.625,12.934 5.423,12.976 5.215,13 5,13 H 1 V 11 Z"/>
 <path style="fill:#444444" d="M 12,1 V 7 L 16,4 Z"/>
 <path style="fill:#444444" d="M 12,9 V 15 L 16,12 Z"/>
</svg>
